assets/Broken heart/Flat/broken_heart_flat.svg

<svg width="32" height="32" viewBox="0 0 32 32" fill="none" xmlns="http://www.w3.org/2000/svg">
<path d="M15.3913 25.7437C15.2593 25.9257 15.1882 26.1281 15.1882 26.3506L15.1679 29.4259C15.1679 29.8912 14.6396 30.1644 14.2536 29.8912C10.7895 27.4533 3.83079 21.8996 2.2562 15.7692C1.06763 11.1361 4.01365 4.92484 11.1145 6.159C12.8517 6.46248 14.5177 7.68652 15.2593 8.83975C15.3507 8.97126 15.5234 9.4366 15.5234 9.4366C15.5285 9.44671 15.531 9.4543 15.5336 9.46189C15.5361 9.46947 15.5386 9.47706 15.5437 9.48718L16.9355 13.2099C17.0574 13.5437 17.0066 13.918 16.7831 14.1911L16.1532 14.9903C16.1431 15.0004 16.1329 15.0131 16.1228 15.0257C16.1126 15.0384 16.1025 15.051 16.0923 15.0611L14.3856 16.8415C14.0809 17.1653 14.0199 17.6407 14.2333 18.0251L16.8644 22.8201C17.0574 23.1641 17.0269 23.5991 16.7831 23.9127L15.3913 25.7437Z" fill="#F92F60"/>
<path d="M16.9289 8.32019C17.8637 7.3415 19.1169 6.44352 20.7502 6.16102C27.951 4.92 30.9299 11.115 29.7486 15.736C28.1461 21.9109 20.9967 27.4904 17.5247 29.8917C17.1344 30.1641 16.6002 29.8917 16.6002 29.4175L16.6208 26.9859C16.6208 26.764 16.6927 26.5521 16.8262 26.3806L18.6238 24.0499C18.8704 23.7371 18.9012 23.3133 18.706 22.9602L16.1277 18.319C15.912 17.9356 15.9736 17.4513 16.2818 17.1385L17.0317 16.3616C17.0419 16.3515 17.0522 16.3389 17.0625 16.3263C17.0727 16.3137 17.083 16.3011 17.0933 16.291L18.5109 14.5354C18.7266 14.263 18.7882 13.8896 18.6649 13.5567L16.8365 8.72377C16.8262 8.71368 16.8057 8.63296 16.8057 8.57243C16.8057 8.42108 16.9289 8.32019 16.9289 8.32019Z" fill="#F92F60"/>
</svg>

<svg xmlns="http://www.w3.org/2000/svg" width="32" height="32" fill="none"><path fill="#F92F60" d="M15.391 25.744a1.015 1.015 0 0 0-.203.607l-.02 3.075c0 .465-.528.738-.914.465C10.79 27.453 3.83 21.9 2.256 15.77c-1.188-4.633 1.758-10.844 8.858-9.61 1.738.303 3.404 1.528 4.145 2.68.092.132.264.598.264.598.005.01.008.017.01.025l.01.025 1.393 3.723c.121.334.07.708-.153.981l-.63.8a.445.445 0 0 0-.03.035c-.01.012-.02.025-.03.035l-1.707 1.78c-.305.324-.366.8-.153 1.184l2.631 4.795a.996.996 0 0 1-.08 1.093l-1.393 1.83Z"/><path fill="#F92F60" d="M16.929 8.32c.935-.979 2.188-1.876 3.821-2.159 7.201-1.241 10.18 4.954 8.999 9.575-1.603 6.175-8.752 11.754-12.224 14.156a.585.585 0 0 1-.925-.474l.02-2.432c0-.222.073-.434.206-.605l1.798-2.331a.98.98 0 0 0 .082-1.09l-2.578-4.641a.993.993 0 0 1 .154-1.18l.75-.777c.01-.01.02-.023.03-.036a.426.426 0 0 1 .031-.035l1.418-1.756c.216-.272.277-.645.154-.978l-1.828-4.833a.378.378 0 0 1-.031-.152c0-.15.123-.252.123-.252Z"/></svg>
